images/icon-phone.svg

<svg width="23" height="23" viewBox="0 0 23 23" fill="none" xmlns="http://www.w3.org/2000/svg">
<mask id="mask0_2_65" style="mask-type:alpha" maskUnits="userSpaceOnUse" x="0" y="0" width="23" height="23">
<g clip-path="url(#clip0_2_65)">
<path d="M18.1772 14.2479C17.7064 13.7576 17.1384 13.4955 16.5365 13.4955C15.9394 13.4955 15.3666 13.7527 14.8763 14.243L13.3424 15.7721C13.2161 15.7042 13.0899 15.6411 12.9686 15.578C12.7938 15.4906 12.6288 15.4081 12.488 15.3207C11.0511 14.4081 9.74532 13.2188 8.49291 11.6799C7.88612 10.913 7.47835 10.2673 7.18224 9.61201C7.5803 9.24794 7.94922 8.86931 8.30844 8.50523C8.44436 8.36931 8.58028 8.22854 8.7162 8.09262C9.73561 7.07321 9.73561 5.75284 8.7162 4.73344L7.39098 3.40821C7.24049 3.25773 7.08516 3.10239 6.93953 2.94705C6.64827 2.64608 6.34245 2.33541 6.02692 2.04415C5.55605 1.57814 4.99295 1.33057 4.40072 1.33057C3.8085 1.33057 3.23569 1.57814 2.75026 2.04415C2.7454 2.049 2.7454 2.049 2.74055 2.05386L1.09009 3.71889C0.468734 4.34024 0.11437 5.09751 0.0367008 5.97614C-0.0798026 7.3936 0.337668 8.71397 0.658052 9.57803C1.44445 11.6994 2.61919 13.6654 4.3716 15.7721C6.49778 18.3109 9.05601 20.3158 11.9783 21.7284C13.0948 22.2575 14.5851 22.8837 16.2501 22.9905C16.352 22.9953 16.4588 23.0002 16.5559 23.0002C17.6773 23.0002 18.619 22.5973 19.3568 21.7963C19.3617 21.7866 19.3714 21.7818 19.3763 21.7721C19.6287 21.4662 19.9199 21.1895 20.2258 20.8934C20.4345 20.6944 20.6481 20.4857 20.8568 20.2672C21.3374 19.7672 21.5898 19.1847 21.5898 18.5876C21.5898 17.9857 21.3325 17.408 20.8423 16.9226L18.1772 14.2479ZM19.9151 19.3595C19.9102 19.3595 19.9102 19.3643 19.9151 19.3595C19.7258 19.5633 19.5316 19.7478 19.3229 19.9517C19.0073 20.2527 18.687 20.5682 18.386 20.9226C17.8957 21.4468 17.318 21.6944 16.5608 21.6944C16.488 21.6944 16.4103 21.6944 16.3375 21.6895C14.8957 21.5973 13.5559 21.0342 12.5511 20.5536C9.80357 19.2235 7.39098 17.3352 5.38615 14.942C3.73083 12.9469 2.62405 11.1023 1.89105 9.12173C1.4396 7.91301 1.27455 6.97127 1.34736 6.08293C1.39591 5.51498 1.61435 5.04411 2.01726 4.6412L3.67258 2.98589C3.91044 2.76259 4.16286 2.64123 4.41043 2.64123C4.71625 2.64123 4.96382 2.82569 5.11916 2.98103C5.12402 2.98589 5.12887 2.99074 5.13372 2.99559C5.42984 3.27229 5.71139 3.55869 6.0075 3.86452C6.15798 4.01985 6.31332 4.17519 6.46866 4.33538L7.79389 5.66061C8.30844 6.17517 8.30844 6.65089 7.79389 7.16544C7.65311 7.30622 7.51719 7.44699 7.37641 7.58291C6.96865 8.00038 6.58031 8.38873 6.15798 8.76737C6.14827 8.77707 6.13857 8.78193 6.13371 8.79164C5.71624 9.20911 5.79391 9.61687 5.88129 9.89356C5.88614 9.90813 5.891 9.92269 5.89585 9.93725C6.24051 10.7722 6.72594 11.5586 7.46379 12.4955L7.46865 12.5003C8.80844 14.1508 10.221 15.4372 11.7793 16.4226C11.9783 16.5488 12.1822 16.6508 12.3764 16.7478C12.5511 16.8352 12.7162 16.9177 12.8569 17.0051C12.8763 17.0148 12.8958 17.0294 12.9152 17.0391C13.0802 17.1216 13.2356 17.1605 13.3958 17.1605C13.7987 17.1605 14.0511 16.908 14.1336 16.8255L15.7938 15.1653C15.9588 15.0003 16.221 14.8013 16.5268 14.8013C16.8278 14.8013 17.0753 14.9906 17.2258 15.1556C17.2307 15.1605 17.2307 15.1605 17.2355 15.1653L19.9102 17.8401C20.4102 18.3352 20.4102 18.8449 19.9151 19.3595Z" fill="black"/>
<path d="M12.4297 5.47092C13.7016 5.68451 14.8569 6.28644 15.7792 7.20876C16.7015 8.13108 17.2986 9.2864 17.5171 10.5582C17.5705 10.8786 17.8472 11.1019 18.1627 11.1019C18.2015 11.1019 18.2355 11.0971 18.2743 11.0922C18.6335 11.034 18.8714 10.6942 18.8132 10.3349C18.551 8.79612 17.8229 7.39322 16.7112 6.28159C15.5996 5.16995 14.1967 4.4418 12.6579 4.17967C12.2987 4.12142 11.9637 4.35928 11.9006 4.71365C11.8375 5.06801 12.0705 5.41267 12.4297 5.47092Z" fill="black"/>
<path d="M22.9733 10.1458C22.5413 7.61184 21.3471 5.30604 19.5122 3.47111C17.6772 1.63618 15.3715 0.442024 12.8375 0.00999088C12.4831 -0.0531151 12.1482 0.1896 12.0851 0.543965C12.0268 0.903184 12.2647 1.23813 12.6239 1.30124C14.886 1.68473 16.9491 2.75753 18.5899 4.39343C20.2306 6.03419 21.2986 8.09727 21.6821 10.3594C21.7354 10.6798 22.0121 10.9031 22.3277 10.9031C22.3665 10.9031 22.4005 10.8982 22.4393 10.8933C22.7937 10.84 23.0364 10.5002 22.9733 10.1458Z" fill="black"/>
</g>
</mask>
<g mask="url(#mask0_2_65)">
<rect x="-9.06061" y="-81.5454" width="130.333" height="120.576" fill="white"/>
</g>
<defs>
<clipPath id="clip0_2_65">
<rect width="23" height="23" fill="white"/>
</clipPath>
</defs>
</svg>

<svg xmlns="http://www.w3.org/2000/svg" width="23" height="23" fill="none"><mask id="b" width="23" height="23" x="0" y="0" maskUnits="userSpaceOnUse" style="mask-type:alpha"><g fill="#000" clip-path="url(#a)"><path d="M18.177 14.248c-.47-.49-1.039-.752-1.64-.752-.598 0-1.17.257-1.66.747l-1.535 1.53c-.126-.069-.252-.132-.373-.195a6.165 6.165 0 0 1-.481-.257c-1.437-.913-2.743-2.102-3.995-3.641-.607-.767-1.015-1.413-1.31-2.068.397-.364.766-.743 1.125-1.107l.408-.412c1.02-1.02 1.02-2.34 0-3.36L7.391 3.408a20.2 20.2 0 0 1-.451-.46 22.92 22.92 0 0 0-.913-.904c-.471-.466-1.034-.713-1.626-.713-.592 0-1.165.247-1.65.713l-.01.01-1.65 1.665A3.551 3.551 0 0 0 .036 5.976c-.117 1.418.3 2.738.621 3.602.786 2.121 1.961 4.087 3.714 6.194 2.126 2.539 4.684 4.544 7.606 5.956 1.117.53 2.607 1.156 4.272 1.262.102.005.209.01.306.01 1.121 0 2.063-.403 2.8-1.204.006-.01.015-.014.02-.024.253-.306.544-.582.85-.879.209-.199.422-.407.63-.626.481-.5.734-1.082.734-1.68 0-.601-.258-1.179-.748-1.664l-2.665-2.675Zm1.738 5.112c-.005 0-.005.004 0 0-.19.203-.383.388-.592.592-.316.3-.636.616-.937.97-.49.525-1.068.772-1.825.772-.073 0-.15 0-.224-.005-1.441-.092-2.781-.655-3.786-1.135-2.747-1.33-5.16-3.219-7.165-5.612-1.655-1.995-2.762-3.84-3.495-5.82-.451-1.209-.616-2.15-.544-3.04a2.228 2.228 0 0 1 .67-1.44l1.656-1.656c.237-.223.49-.345.737-.345.306 0 .554.185.71.34l.014.015c.296.276.577.563.873.869l.462.47 1.325 1.326c.514.514.514.99 0 1.504-.14.141-.277.282-.418.418-.407.417-.796.806-1.218 1.184-.01.01-.02.015-.024.025-.418.417-.34.825-.253 1.102l.015.043c.345.835.83 1.622 1.568 2.559l.005.004c1.34 1.65 2.752 2.937 4.31 3.923.2.126.403.228.597.325.175.087.34.17.48.257.02.01.04.024.06.034.164.083.32.121.48.121.403 0 .655-.252.738-.334l1.66-1.66c.165-.166.427-.365.733-.365.3 0 .548.19.699.355l.01.01 2.674 2.674c.5.495.5 1.005.005 1.52ZM12.43 5.47a6.155 6.155 0 0 1 3.35 1.739 6.188 6.188 0 0 1 1.737 3.35c.053.32.33.543.646.543.038 0 .072-.005.111-.01a.656.656 0 0 0 .54-.757 7.487 7.487 0 0 0-2.103-4.053 7.487 7.487 0 0 0-4.053-2.102.659.659 0 0 0-.757.534.648.648 0 0 0 .529.757ZM22.973 10.146a12.317 12.317 0 0 0-3.46-6.675A12.318 12.318 0 0 0 12.836.01a.653.653 0 0 0-.752.534c-.058.36.18.694.539.757a11.03 11.03 0 0 1 5.966 3.092 10.998 10.998 0 0 1 3.092 5.966c.053.32.33.544.646.544.038 0 .073-.005.111-.01a.643.643 0 0 0 .534-.747Z"/></g></mask><g mask="url(#b)"><path fill="#fff" d="M-9.061-81.545h130.333V39.031H-9.061z"/></g><defs><clipPath id="a"><path fill="#fff" d="M0 0h23v23H0z"/></clipPath></defs></svg>
